assets/camera-fill.svg

<svg xmlns="http://www.w3.org/2000/svg" fill="none" viewBox="0 0 28 21">
  <path fill="#2A2238" d="M18.375 11.375c0 1.1603-.4609 2.2731-1.2814 3.0936-.8205.8205-1.9333 1.2814-3.0936 1.2814-1.1603 0-2.2731-.4609-3.0936-1.2814-.8205-.8205-1.2814-1.9333-1.2814-3.0936 0-1.1603.4609-2.27312 1.2814-3.09359C11.7269 7.46094 12.8397 7 14 7c1.1603 0 2.2731.46094 3.0936 1.28141.8205.82047 1.2814 1.93329 1.2814 3.09359Z"/>
  <path fill="#2A2238" d="M3.5 3.5c-.92826 0-1.8185.36875-2.47487 1.02513C.368749 5.1815 0 6.07174 0 7v10.5c0 .9283.368749 1.8185 1.02513 2.4749C1.6815 20.6313 2.57174 21 3.5 21h21c.9283 0 1.8185-.3687 2.4749-1.0251C27.6313 19.3185 28 18.4283 28 17.5V7c0-.92826-.3687-1.8185-1.0251-2.47487C26.3185 3.86875 25.4283 3.5 24.5 3.5h-2.051c-.9282-.0002-1.8183-.36908-2.4745-1.0255l-1.449-1.449C17.8693.369077 16.9792.00019823 16.051 0h-4.102c-.9282.00019823-1.8183.369077-2.4745 1.0255l-1.449 1.449C7.36928 3.13092 6.47918 3.4998 5.551 3.5H3.5ZM4.375 7c-.23206 0-.45462-.09219-.61872-.25628C3.59219 6.57962 3.5 6.35706 3.5 6.125c0-.23206.09219-.45462.25628-.61872.1641-.16409.38666-.25628.61872-.25628.23206 0 .45462.09219.61872.25628.16409.1641.25628.38666.25628.61872 0 .23206-.09219.45462-.25628.61872C4.82962 6.90781 4.60706 7 4.375 7Zm15.75 4.375c0 1.6245-.6453 3.1824-1.794 4.331C17.1824 16.8547 15.6245 17.5 14 17.5c-1.6245 0-3.1824-.6453-4.33103-1.794C8.52031 14.5574 7.875 12.9995 7.875 11.375c0-1.62445.64531-3.18237 1.79397-4.33103C10.8176 5.89531 12.3755 5.25 14 5.25c1.6245 0 3.1824.64531 4.331 1.79397 1.1487 1.14866 1.794 2.70658 1.794 4.33103Z"/>
</svg>

<svg width="28" height="21" viewBox="0 0 28 21" fill="none" xmlns="http://www.w3.org/2000/svg">
<path d="M18.375 11.375C18.375 12.5353 17.9141 13.6481 17.0936 14.4686C16.2731 15.2891 15.1603 15.75 14 15.75C12.8397 15.75 11.7269 15.2891 10.9064 14.4686C10.0859 13.6481 9.625 12.5353 9.625 11.375C9.625 10.2147 10.0859 9.10188 10.9064 8.28141C11.7269 7.46094 12.8397 7 14 7C15.1603 7 16.2731 7.46094 17.0936 8.28141C17.9141 9.10188 18.375 10.2147 18.375 11.375V11.375Z" fill="#2A2238"/>
<path d="M3.5 3.5C2.57174 3.5 1.6815 3.86875 1.02513 4.52513C0.368749 5.1815 0 6.07174 0 7L0 17.5C0 18.4283 0.368749 19.3185 1.02513 19.9749C1.6815 20.6313 2.57174 21 3.5 21H24.5C25.4283 21 26.3185 20.6313 26.9749 19.9749C27.6313 19.3185 28 18.4283 28 17.5V7C28 6.07174 27.6313 5.1815 26.9749 4.52513C26.3185 3.86875 25.4283 3.5 24.5 3.5H22.449C21.5208 3.4998 20.6307 3.13092 19.9745 2.4745L18.5255 1.0255C17.8693 0.369077 16.9792 0.000198231 16.051 0H11.949C11.0208 0.000198231 10.1307 0.369077 9.4745 1.0255L8.0255 2.4745C7.36928 3.13092 6.47918 3.4998 5.551 3.5H3.5ZM4.375 7C4.14294 7 3.92038 6.90781 3.75628 6.74372C3.59219 6.57962 3.5 6.35706 3.5 6.125C3.5 5.89294 3.59219 5.67038 3.75628 5.50628C3.92038 5.34219 4.14294 5.25 4.375 5.25C4.60706 5.25 4.82962 5.34219 4.99372 5.50628C5.15781 5.67038 5.25 5.89294 5.25 6.125C5.25 6.35706 5.15781 6.57962 4.99372 6.74372C4.82962 6.90781 4.60706 7 4.375 7ZM20.125 11.375C20.125 12.9995 19.4797 14.5574 18.331 15.706C17.1824 16.8547 15.6245 17.5 14 17.5C12.3755 17.5 10.8176 16.8547 9.66897 15.706C8.52031 14.5574 7.875 12.9995 7.875 11.375C7.875 9.75055 8.52031 8.19263 9.66897 7.04397C10.8176 5.89531 12.3755 5.25 14 5.25C15.6245 5.25 17.1824 5.89531 18.331 7.04397C19.4797 8.19263 20.125 9.75055 20.125 11.375Z" fill="#2A2238"/>
</svg>
